X:514
T:You Don't Know My Mind
C:Ricky Skaggs solo
N:From Holiday in Japan - The New South
R:bluegrass
L:1/8
Q:1/4=214
M:4/4
K:C
z2 _B2 B2 d2 | "Bb"fg fd c_B cd | z{c}d2{c}d df gf | dc {_B}cB {F}G^D CD | "Eb"FC ^DF G_B GD | 
"F"FG A_B =Bc fd | gf {c}df {c}d_B GF | "Bb"_B2 {G}B2 d^d f=d | _bg f2 gf ^cd | 
fg {^c}dg [g2c2] z2 | [^c2G2] [c2G2] _BF GB | z_B {F}GB {F}G^D CD | "Eb"_B,C ^DF G_B GD | 
"F"FG A_B =Bc fg | z_b2f {c}d_B GF | "Bb"_B2 GB d^d f=d | _b2 (3^gbg {e}fg ^d=d | 
f2 (3^dfd c3G | c2 [_b6d6_B6F6] | 


